modules/themify-icons/icons/ruler.svg

<?xml version="1.0" encoding="utf-8"?>
<!-- Generated by IcoMoon.io -->
<!DOCTYPE svg PUBLIC "-//W3C//DTD SVG 1.1//EN" "http://www.w3.org/Graphics/SVG/1.1/DTD/svg11.dtd">
<svg version="1.1" xmlns="http://www.w3.org/2000/svg" xmlns:xlink="http://www.w3.org/1999/xlink" width="17" height="17" viewBox="0 0 17 17">
<g>
</g>
	<path d="M5 0v17h7v-17h-7zM11 16h-5v-0.984h2v-1h-2v-1.016h1v-1h-1v-1h2v-1h-2v-0.984h1v-1h-1v-1h2v-1h-2v-1.016h1v-1h-1v-1h2v-1h-2v-1h5v15z" fill="#000000" />
</svg>

<svg xmlns="http://www.w3.org/2000/svg" width="17" height="17"><path d="M5 0v17h7V0H5zm6 16H6v-.984h2v-1H6V13h1v-1H6v-1h2v-1H6v-.984h1v-1H6v-1h2v-1H6V5h1V4H6V3h2V2H6V1h5v15z"/></svg>
